swiss/communes/0403.svg

<?xml version="1.0" encoding="UTF-8" standalone="no"?>
<svg
   xmlns:dc="http://purl.org/dc/elements/1.1/"
   xmlns:cc="http://web.resource.org/cc/"
   xmlns:rdf="http://www.w3.org/1999/02/22-rdf-syntax-ns#"
   xmlns:svg="http://www.w3.org/2000/svg"
   xmlns="http://www.w3.org/2000/svg"
   xmlns:xlink="http://www.w3.org/1999/xlink"
   xmlns:sodipodi="http://sodipodi.sourceforge.net/DTD/sodipodi-0.dtd"
   xmlns:inkscape="http://www.inkscape.org/namespaces/inkscape"
   height="763"
   width="603"
   version="1.0"
   id="svg20"
   sodipodi:version="0.32"
   inkscape:version="0.45.1"
   sodipodi:docname="Bäriswil-coat of arms.svg"
   sodipodi:docbase="C:\Users\Camilo\Documents\Escudos de Suiza"
   inkscape:output_extension="org.inkscape.output.svg.inkscape">
  <metadata
     id="metadata31">
    <rdf:RDF>
      <cc:Work
         rdf:about="">
        <dc:format>image/svg+xml</dc:format>
        <dc:type
           rdf:resource="http://purl.org/dc/dcmitype/StillImage" />
        <dc:date>07-AUG-2006</dc:date>
        <dc:creator>
          <cc:Agent>
            <dc:title>Jérôme BLUM (wagner51)</dc:title>
          </cc:Agent>
        </dc:creator>
        <cc:license
           rdf:resource="http://creativecommons.org/licenses/GPL/2.0/" />
        <dc:coverage />
        <dc:description>Gabarit pour le Projet:Blasons de WIkipédia</dc:description>
        <dc:subject>
          <rdf:Bag>
            <rdf:li>blason suisse modèle gabarit projet blasons</rdf:li>
          </rdf:Bag>
        </dc:subject>
        <dc:language>fr</dc:language>
        <dc:title>Gabrit d'un blason suisse</dc:title>
      </cc:Work>
      <cc:License
         rdf:about="http://creativecommons.org/licenses/GPL/2.0/">
        <cc:permits
           rdf:resource="http://web.resource.org/cc/Reproduction" />
        <cc:permits
           rdf:resource="http://web.resource.org/cc/Distribution" />
        <cc:requires
           rdf:resource="http://web.resource.org/cc/Notice" />
        <cc:permits
           rdf:resource="http://web.resource.org/cc/DerivativeWorks" />
        <cc:requires
           rdf:resource="http://web.resource.org/cc/ShareAlike" />
        <cc:requires
           rdf:resource="http://web.resource.org/cc/SourceCode" />
      </cc:License>
    </rdf:RDF>
  </metadata>
  <defs
     id="defs29">
    <linearGradient
       id="linearGradient2893">
      <stop
         style="stop-color:#ffffff;stop-opacity:0.3137255;"
         offset="0"
         id="stop2895" />
      <stop
         id="stop2897"
         offset="0.19"
         style="stop-color:#ffffff;stop-opacity:0.25098041;" />
      <stop
         style="stop-color:#6b6b6b;stop-opacity:0.1254902;"
         offset="0.60000002"
         id="stop2901" />
      <stop
         style="stop-color:#000000;stop-opacity:0.1254902;"
         offset="1"
         id="stop2899" />
    </linearGradient>
    <radialGradient
       inkscape:collect="always"
       xlink:href="#linearGradient2893"
       id="radialGradient3236"
       gradientUnits="userSpaceOnUse"
       gradientTransform="matrix(1.215027,1.531577e-24,1.464684e-23,1.266667,-839.1924,-490.4894)"
       cx="858.04236"
       cy="579.93323"
       fx="858.04236"
       fy="579.93323"
       r="300" />
  </defs>
  <sodipodi:namedview
     inkscape:window-height="750"
     inkscape:window-width="1280"
     inkscape:pageshadow="2"
     inkscape:pageopacity="0.0"
     guidetolerance="10.0"
     gridtolerance="10.0"
     objecttolerance="10.0"
     borderopacity="1.0"
     bordercolor="#666666"
     pagecolor="#ffffff"
     id="base"
     inkscape:zoom="0.38584535"
     inkscape:cx="473.53949"
     inkscape:cy="255.32291"
     inkscape:window-x="-8"
     inkscape:window-y="-8"
     inkscape:current-layer="layer2"
     showgrid="true"
     showguides="false" />
  <desc
     id="desc22">Coat of Arms of Canton of Freiburg (Fribourg)</desc>
  <g
     inkscape:groupmode="layer"
     id="layer1"
     inkscape:label="Fond écu"
     style="display:inline"
     sodipodi:insensitive="true">
    <path
       id="path1899"
       d="M 1.5,1.49998 L 1.5,460.3679 C 1.5,626.6785 135.81456,761.5 301.49999,761.5 C 467.18543,761.5 601.5,626.6785 601.5,460.3679 L 601.5,1.49998 L 1.5,1.49998 z "
       style="fill:#ffffff;fill-opacity:1" />
    <path
       style="fill:#e20909;fill-opacity:1;stroke:#000000;stroke-width:2.84040403;stroke-miterlimit:4;stroke-dasharray:none;stroke-opacity:1"
       d="M 87.125,1.5 L 87.125,671 C 110.99113,695.47174 138.98186,715.86269 169.96875,731.0625 L 169.96875,1.5 L 87.125,1.5 z "
       id="rect2257" />
    <path
       style="fill:#e20909;fill-opacity:1;stroke:#000000;stroke-width:2.84040403;stroke-miterlimit:4;stroke-dasharray:none;stroke-opacity:1"
       d="M 432.90625,1.5 L 432.90625,731.125 C 463.90319,715.93832 491.90298,695.55652 515.78125,671.09375 L 515.78125,1.5 L 432.90625,1.5 z "
       id="rect2259" />
    <path
       style="fill:#e20909;fill-opacity:1;stroke:#000000;stroke-width:2.84040403;stroke-miterlimit:4;stroke-dasharray:none;stroke-opacity:1"
       d="M 260.0625,1.5 L 260.0625,758.625 C 273.60814,760.5037 287.43961,761.5 301.5,761.5 C 315.56039,761.5 329.39186,760.5037 342.9375,758.625 L 342.9375,1.5 L 260.0625,1.5 z "
       id="rect2261" />
  </g>
  <g
     inkscape:groupmode="layer"
     id="layer2"
     inkscape:label="Meubles"
     style="display:inline"
     sodipodi:insensitive="true">
    <g
       id="g11996"
       transform="matrix(4.1395409,0,0,4.1395409,-2575.9384,-2348.4131)">
      <path
         sodipodi:nodetypes="cccccccccccccsccccsccccccccccccccccccccccccccccccccsccccccccccccccccccccc"
         id="path3245"
         d="M 746.37446,698.34361 C 739.2699,692.23744 742.47094,684.41367 742.022,677.19823 L 746.4493,678.22908 C 744.80772,656.01108 732.59678,655.42592 724.19823,644.60354 C 723.89675,640.95692 724.12856,636.88367 722.40531,634.37446 L 727.36561,628.11454 C 729.16005,627.18975 730.95449,627.93864 732.74893,629.4493 C 734.02719,625.86195 733.69477,622.27459 733.16738,618.68723 C 735.06212,618.81015 736.28703,620.60762 737.59469,622.19823 C 739.08457,614.36801 741.35274,606.39629 739.65638,599.14539 C 751.77131,594.62139 747.44517,582.56008 738.43616,584.03085 C 737.63755,574.99333 725.69303,575.62954 723.77522,583.57269 C 717.66125,583.82231 710.04167,578.55134 705.57269,584.83262 C 705.57269,584.83262 695.1054,583.3177 691.60354,582.31277 C 686.46688,580.8387 691.75626,591.4611 691.94716,595.978 L 694.08369,593.57269 C 712.63878,600.10118 706.30805,610.44788 695,608 L 693.5507,605.17623 C 694.47886,607.93774 691.59756,612.80779 697.74893,612.54185 C 702.21461,612.34878 707.70923,613.22908 707.70923,613.22908 C 701.46576,618.57243 695.28183,624.16382 687.25563,622.07914 C 678.01583,618.19037 668.77604,613.35491 659.53624,608.57784 C 658.88907,601.94061 662.05161,593.71599 657.59372,588.66656 C 660.80994,583.57463 655.2773,579.19763 651.5841,579.94632 C 653.73768,581.87997 656.47259,583.39428 654.15752,586.83632 C 652.6586,583.37374 649.25805,579.24883 645.85223,582.14761 C 647.86084,582.82123 648.93787,584.54288 648.50616,587.96186 C 645.72456,585.61635 642.15793,583.59258 638.63766,586.60026 C 640.17356,587.63193 642.43998,587.20258 642.88324,590.41955 C 640.62147,589.27095 637.34587,588.49315 634.39696,591.77642 C 635.9972,591.96899 637.5827,592.24999 638.88345,594.23948 C 634.66109,594.07418 632.6551,595.46035 631.47194,597.4225 C 633.60662,597.23661 635.51223,596.87882 637.64691,598.40057 C 640.09475,606.30398 639.3206,616.29221 646.39936,621.19913 L 657.95027,628.45147 C 656.62472,629.50741 655.06183,630.32603 653.1261,630.7718 C 656.79072,632.89469 661.1353,634.07944 664.84472,634.84774 C 663.43549,635.60629 661.00436,636.36484 658.38736,637.12339 C 663.59399,639.05738 669.15991,639.91353 674.65639,640.978 C 668.37152,645.36627 662.08664,649.0097 655.80177,654.489 C 653.72042,649.39248 651.52364,644.4111 646.71808,639.60354 C 645.13852,634.12314 641.0425,631.24244 636.4493,636.09254 C 639.67828,636.19323 641.87952,637.21888 642.06169,640.06169 C 639.326,639.28545 636.59031,637.23822 633.85461,640.17623 C 636.20163,641.49715 638.97615,642.47607 639.88546,644.94716 C 636.72325,643.17484 633.5938,641.71372 631.03085,645.63439 C 633.14244,646.1039 635.25402,645.99123 637.36561,649.37446 C 634.00202,648.02965 628.49157,646.83464 629.08369,651.85461 C 631.05579,650.68293 633.0279,651.77437 635,653 C 631.67628,653.73134 627.22275,653.24597 627.63439,658 C 629.82233,657.57123 632.01028,656.27125 634.19823,658.11454 C 634.98939,665.34859 643.30196,669.93923 646.82647,674.88163 C 650.81523,680.47505 658.85846,679.37959 668.28192,668.11454 C 667.98549,670.41883 668.44644,672.76005 669.65638,675.36561 C 671.99331,670.46244 674.71435,666.835 677.93831,663.11454 C 677.63758,665.49338 677.11662,667.87223 678.28192,670.25107 C 682.73253,664.056 688.22533,659.73687 694.19823,656.28192 C 699.89607,662.88487 707.58202,666.50566 714.36331,671.48344 C 706.97796,695.02864 720.00366,699.98417 726.03085,717.08369 C 722.40668,718.21251 718.89199,719.88867 715.57269,722.54185 C 711.51888,721.3168 707.7955,722.73528 704.35247,726.39646 C 706.6799,725.22621 709.00733,724.5698 711.33477,725.82377 C 710.27366,727.59966 709.54533,729.70833 710,733 C 711.81938,730.72633 713.63877,729.2436 715.45815,728.80177 C 712.75155,731.27393 713.46914,734.23526 715,737.31277 C 715.85301,735.2493 716.45146,732.59185 718.16738,732.54185 C 717.77511,734.74303 717.59929,736.94421 719.31277,739.14539 C 719.96703,737.31125 719.93722,734.90706 722.29077,734.489 C 722.83813,736.82967 722.70949,739.17033 724.65638,741.511 L 725.64753,736.5507 C 731.58555,736.0794 757.62232,724.5302 751.22023,712.61669 C 748.39385,707.81322 745.3449,704.56772 742.78928,697.86898 L 746.37446,698.34361 z "
         style="fill:#000000;fill-rule:evenodd;stroke:#000000;stroke-width:1px;stroke-linecap:butt;stroke-linejoin:miter;stroke-opacity:1" />
      <path
         sodipodi:nodetypes="ccccccccccccsccccccc"
         id="path4216"
         d="M 705.16198,664.7818 C 678.82444,677.56025 678.35966,667.61483 675.80991,709.13387 C 660.9791,703.54525 661.17311,694.72484 653.70414,700.89423 C 655.80276,702.76473 657.25345,701.05874 659.35207,703.78847 C 657.04357,704.03537 652.63788,703.74353 652.10577,707.67604 C 654.31,707.86813 656.73001,706.98137 658.54216,709.13387 C 655.08558,709.65694 651.93634,710.53125 651.45784,714.45784 C 653.8043,713.88204 655.96153,712.17077 658.70414,713.97189 C 656.3371,715.49103 652.56152,715.7777 653.38018,720.08432 C 655.53279,719.04955 657.68541,719.09124 659.83802,719.7818 C 656.49536,721.40805 653.89825,723.33252 656.94378,727.51405 C 657.18159,724.96813 658.4795,723.83567 660,723 C 669.41312,727.56784 686.95803,734.55497 690,726.2182 C 691.38314,722.42759 691.24641,718.70815 693.2182,715.57027 C 694.42809,716.61603 694.98014,717.70147 696.13387,717.67604 C 695.47518,714.12673 695.00104,710.57742 695.97189,707.02811 L 699.02811,708.97189 C 697.86943,693.7955 700.69584,699.19777 713.72559,690.73225 L 715.34541,670.87279 L 705.16198,664.7818 z "
         style="fill:#000000;fill-rule:evenodd;stroke:#000000;stroke-width:1px;stroke-linecap:butt;stroke-linejoin:miter;stroke-opacity:1" />
      <path
         sodipodi:nodetypes="cccccc"
         id="path5187"
         d="M 707.73225,588.16198 L 710.80991,588.64793 C 711.04197,591.8597 711.90571,592.99278 714.19009,593.80991 C 713.88914,592.16891 713.39166,590.67838 713.86613,589.29586 L 720.48595,590.10577 C 721.65247,598.06459 707.45712,600.43132 707.73225,588.16198 z "
         style="fill:#ffffff;fill-opacity:1;fill-rule:evenodd;stroke:#000000;stroke-width:1px;stroke-linecap:butt;stroke-linejoin:miter;stroke-opacity:1" />
      <path
         sodipodi:nodetypes="ccsc"
         id="path6158"
         d="M 705.48595,605.59171 C 696.38423,596.75436 673.58394,602.53147 679.02811,580.73225 C 664.30685,587.10719 668.34609,599.03368 680.16198,601.70414 C 688.18487,603.51736 696.55868,600.1356 705.48595,605.59171 z "
         style="fill:#e20909;fill-opacity:1;fill-rule:evenodd;stroke:#000000;stroke-width:1px;stroke-linecap:butt;stroke-linejoin:miter;stroke-opacity:1" />
      <path
         sodipodi:nodetypes="ccc"
         id="path7129"
         d="M 724.02811,583.16198 C 726.35467,584.05084 730.34975,583.5355 731.45784,588.48595 C 732.47901,585.47013 734.71407,584.72088 737.89423,584.29586"
         style="fill:none;fill-rule:evenodd;stroke:#ffffff;stroke-width:1px;stroke-linecap:butt;stroke-linejoin:miter;stroke-opacity:1" />
      <path
         sodipodi:nodetypes="cc"
         id="path8100"
         d="M 710,613.80991 C 716.66701,616.99629 723.34159,617.45587 726.29586,611.70414"
         style="fill:none;fill-rule:evenodd;stroke:#ffffff;stroke-width:1px;stroke-linecap:butt;stroke-linejoin:miter;stroke-opacity:1" />
      <path
         style="fill:none;fill-rule:evenodd;stroke:#ffffff;stroke-width:1px;stroke-linecap:butt;stroke-linejoin:miter;stroke-opacity:1"
         d="M 694.17814,657.29139 C 700.52119,653.83651 705.62339,651.38855 706.14793,645.63682"
         id="path9071"
         sodipodi:nodetypes="cc" />
      <path
         sodipodi:nodetypes="cc"
         id="path9073"
         d="M 672.28783,641.40933 C 676.84907,638.60237 686.05978,630.99065 690.30991,631.39423"
         style="fill:none;fill-rule:evenodd;stroke:#ffffff;stroke-width:1px;stroke-linecap:butt;stroke-linejoin:miter;stroke-opacity:1" />
      <path
         style="fill:none;fill-rule:evenodd;stroke:#ffffff;stroke-width:1px;stroke-linecap:butt;stroke-linejoin:miter;stroke-opacity:1"
         d="M 677.46523,636.1871 C 675.87115,630.30248 679.14411,622.98693 686.14793,622.74259"
         id="path9075"
         sodipodi:nodetypes="cc" />
      <path
         sodipodi:nodetypes="csc"
         id="path9077"
         d="M 647.58432,621.1871 C 654.60085,622.50808 659.64283,616.74665 657.25456,610.56372 C 654.66481,603.85915 652.09975,595.45699 655.78108,590.57249"
         style="fill:none;fill-rule:evenodd;stroke:#ffffff;stroke-width:1px;stroke-linecap:butt;stroke-linejoin:miter;stroke-opacity:1" />
      <path
         style="fill:none;fill-rule:evenodd;stroke:#ffffff;stroke-width:1px;stroke-linecap:butt;stroke-linejoin:miter;stroke-opacity:1"
         d="M 651.65532,660.51773 C 651.10321,657.20173 653.00744,655.27588 654.99262,654.20042"
         id="path9079"
         sodipodi:nodetypes="cc" />
      <path
         sodipodi:nodetypes="cc"
         id="path9081"
         d="M 711.65532,679.017 C 710.86234,683.46855 711.38984,688.84092 712.07694,692.94745"
         style="fill:none;fill-rule:evenodd;stroke:#ffffff;stroke-width:1px;stroke-linecap:butt;stroke-linejoin:miter;stroke-opacity:1" />
      <path
         style="fill:none;fill-rule:evenodd;stroke:#ffffff;stroke-width:1px;stroke-linecap:butt;stroke-linejoin:miter;stroke-opacity:1"
         d="M 725.16937,716.73964 C 726.49097,718.14422 728.46807,719.73768 732.88018,720.14126"
         id="path9083"
         sodipodi:nodetypes="cc" />
      <path
         sodipodi:nodetypes="cc"
         id="path9085"
         d="M 663.32547,703.66185 C 673.00805,720.25036 693.05079,711.28415 687.81147,728.1187"
         style="fill:none;fill-rule:evenodd;stroke:#ffffff;stroke-width:1px;stroke-linecap:butt;stroke-linejoin:miter;stroke-opacity:1" />
      <path
         sodipodi:nodetypes="cccc"
         id="path9087"
         d="M 702.57027,665.10577 C 706.60817,667.93814 709.63248,672.03749 711.94378,677.02811 L 714.02811,671.86613 L 702.57027,665.10577 z "
         style="fill:#e20909;fill-opacity:1;fill-rule:evenodd;stroke:#000000;stroke-width:1px;stroke-linecap:butt;stroke-linejoin:miter;stroke-opacity:1" />
    </g>
  </g>
  <g
     inkscape:groupmode="layer"
     id="layer3"
     inkscape:label="Reflet final"
     style="display:inline"
     sodipodi:insensitive="true">
    <path
       style="fill:url(#radialGradient3236);fill-opacity:1"
       d="M 1.5,1.5 L 1.5,460.3679 C 1.5,626.67854 135.81454,761.5 301.49993,761.5 C 467.1854,761.5 601.5,626.67854 601.5,460.3679 L 601.5,1.5 L 1.5,1.5 z "
       id="path2346" />
  </g>
  <g
     inkscape:groupmode="layer"
     id="layer4"
     inkscape:label="Contour final"
     style="display:inline"
     sodipodi:insensitive="true">
    <path
       style="fill:none;fill-opacity:1;stroke:#000000;stroke-width:3;stroke-miterlimit:4;stroke-dasharray:none;stroke-opacity:1"
       d="M 1.5,1.5 L 1.5,460.36794 C 1.5,626.67854 135.81454,761.5 301.49993,761.5 C 467.1854,761.5 601.5,626.67854 601.5,460.36794 L 601.5,1.5 L 1.5,1.5 z "
       id="path3239" />
  </g>
</svg>

<svg xmlns="http://www.w3.org/2000/svg" xmlns:xlink="http://www.w3.org/1999/xlink" height="763" width="603" version="1.0"><defs><radialGradient xlink:href="#a" id="b" gradientUnits="userSpaceOnUse" gradientTransform="matrix(1.21503 0 0 1.26667 -839.192 -490.49)" cx="858.042" cy="579.933" fx="858.042" fy="579.933" r="300"/><linearGradient id="a"><stop style="stop-color:#fff;stop-opacity:.3137255" offset="0"/><stop offset=".19" style="stop-color:#fff;stop-opacity:.25098041"/><stop style="stop-color:#6b6b6b;stop-opacity:.1254902" offset=".6"/><stop style="stop-color:#000;stop-opacity:.1254902" offset="1"/></linearGradient></defs><g style="display:inline"><path d="M1.5 1.5v458.868c0 166.31 134.315 301.132 300 301.132s300-134.822 300-301.132V1.5H1.5z" style="fill:#fff;fill-opacity:1"/><path style="fill:#e20909;fill-opacity:1;stroke:#000;stroke-width:2.84040403;stroke-miterlimit:4;stroke-dasharray:none;stroke-opacity:1" d="M87.125 1.5V671c23.866 24.472 51.857 44.863 82.844 60.063V1.5H87.125zM432.906 1.5v729.625c30.997-15.187 58.997-35.568 82.875-60.031V1.5h-82.875zM260.063 1.5v757.125A301.477 301.477 0 0 0 301.5 761.5c14.06 0 27.892-.996 41.438-2.875V1.5h-82.875z"/></g><g style="display:inline"><path d="M746.374 698.344c-7.104-6.107-3.903-13.93-4.352-21.146l4.427 1.031c-1.641-22.218-13.852-22.803-22.25-33.625-.302-3.647-.07-7.72-1.794-10.23l4.96-6.26c1.795-.924 3.59-.175 5.384 1.335 1.278-3.587.946-7.174.418-10.762 1.895.123 3.12 1.92 4.428 3.511 1.49-7.83 3.758-15.802 2.061-23.053 12.115-4.524 7.79-16.585-1.22-15.114-.798-9.038-12.743-8.401-14.66-.458-6.115.25-13.734-5.022-18.203 1.26 0 0-10.468-1.515-13.97-2.52-5.136-1.474.153 9.148.344 13.665l2.137-2.405c18.555 6.528 12.224 16.875.916 14.427l-1.45-2.824c.929 2.762-1.952 7.632 4.199 7.366 4.466-.193 9.96.687 9.96.687-6.243 5.343-12.427 10.935-20.453 8.85-9.24-3.889-18.48-8.724-27.72-13.501-.647-6.637 2.516-14.862-1.942-19.911 3.216-5.092-2.317-9.47-6.01-8.72 2.154 1.933 4.889 3.447 2.574 6.89-1.5-3.463-4.9-7.588-8.306-4.69 2.009.674 3.086 2.396 2.654 5.815-2.781-2.346-6.348-4.37-9.868-1.362 1.536 1.032 3.802.603 4.245 3.82-2.262-1.149-5.537-1.927-8.486 1.356 1.6.193 3.186.474 4.486 2.463-4.222-.165-6.228 1.221-7.411 3.183 2.135-.185 4.04-.543 6.175.979 2.448 7.903 1.674 17.891 8.752 22.798l11.551 7.252a11.864 11.864 0 0 1-4.824 2.32c3.665 2.124 8.01 3.308 11.719 4.077-1.41.758-3.84 1.517-6.458 2.275 5.207 1.934 10.773 2.79 16.27 3.855-6.285 4.388-12.57 8.032-18.855 13.511-2.082-5.097-4.278-10.078-9.084-14.885-1.58-5.48-5.675-8.362-10.269-3.511 3.23.1 5.43 1.126 5.613 3.969-2.736-.777-5.472-2.824-8.207.114 2.347 1.321 5.121 2.3 6.03 4.771-3.162-1.772-6.291-3.233-8.854.687 2.111.47 4.223.357 6.335 3.74-3.364-1.344-8.874-2.54-8.282 2.48 1.972-1.171 3.944-.08 5.916 1.146-3.324.731-7.777.246-7.366 5 2.188-.429 4.376-1.729 6.564.115.791 7.234 9.104 11.824 12.628 16.767 3.99 5.593 12.032 4.498 21.456-6.767-.297 2.304.164 4.645 1.374 7.25 2.337-4.903 5.058-8.53 8.282-12.25-.3 2.378-.821 4.757.344 7.136 4.45-6.195 9.943-10.514 15.916-13.97 5.698 6.604 13.384 10.225 20.165 15.202-7.385 23.546 5.64 28.501 11.668 45.6-3.624 1.13-7.139 2.806-10.458 5.459-4.054-1.225-7.778.193-11.22 3.854 2.327-1.17 4.654-1.826 6.982-.572-1.061 1.776-1.79 3.884-1.335 7.176 1.82-2.274 3.639-3.756 5.458-4.198-2.706 2.472-1.989 5.433-.458 8.51.853-2.063 1.451-4.72 3.167-4.77-.392 2.201-.568 4.402 1.146 6.603.654-1.834.624-4.238 2.978-4.656.547 2.34.418 4.681 2.365 7.022l.992-4.96c5.938-.472 31.974-12.02 25.572-23.934-2.826-4.804-5.875-8.05-8.43-14.748l3.584.475z" style="fill:#000;fill-rule:evenodd;stroke:#000;stroke-width:1px;stroke-linecap:butt;stroke-linejoin:miter;stroke-opacity:1" transform="translate(-2575.938 -2348.413) scale(4.13954)"/><path d="M705.162 664.782c-26.338 12.778-26.802 2.833-29.352 44.352-14.83-5.589-14.637-14.41-22.106-8.24 2.099 1.87 3.55.165 5.648 2.894-2.308.247-6.714-.044-7.246 3.888 2.204.192 4.624-.695 6.436 1.458-3.456.523-6.606 1.397-7.084 5.324 2.346-.576 4.504-2.287 7.246-.486-2.367 1.519-6.142 1.806-5.324 6.112 2.153-1.034 4.305-.993 6.458-.302-3.343 1.626-5.94 3.55-2.894 7.732.238-2.546 1.536-3.678 3.056-4.514 9.413 4.568 26.958 11.555 30 3.218 1.383-3.79 1.246-7.51 3.218-10.648 1.21 1.046 1.762 2.131 2.916 2.106-.659-3.55-1.133-7.099-.162-10.648l3.056 1.944c-1.159-15.177 1.668-9.774 14.698-18.24l1.62-19.86-10.184-6.09z" style="fill:#000;fill-rule:evenodd;stroke:#000;stroke-width:1px;stroke-linecap:butt;stroke-linejoin:miter;stroke-opacity:1" transform="translate(-2575.938 -2348.413) scale(4.13954)"/><path d="m707.732 588.162 3.078.486c.232 3.212 1.096 4.345 3.38 5.162-.3-1.641-.798-3.132-.324-4.514l6.62.81c1.166 7.959-13.029 10.325-12.754-1.944z" style="fill:#fff;fill-opacity:1;fill-rule:evenodd;stroke:#000;stroke-width:1px;stroke-linecap:butt;stroke-linejoin:miter;stroke-opacity:1" transform="translate(-2575.938 -2348.413) scale(4.13954)"/><path d="M705.486 605.592c-9.102-8.838-31.902-3.06-26.458-24.86-14.721 6.375-10.682 18.302 1.134 20.972 8.023 1.813 16.397-1.568 25.324 3.888z" style="fill:#e20909;fill-opacity:1;fill-rule:evenodd;stroke:#000;stroke-width:1px;stroke-linecap:butt;stroke-linejoin:miter;stroke-opacity:1" transform="translate(-2575.938 -2348.413) scale(4.13954)"/><path d="M724.028 583.162c2.327.889 6.322.373 7.43 5.324 1.021-3.016 3.256-3.765 6.436-4.19M710 613.81c6.667 3.186 13.342 3.646 16.296-2.106M694.178 657.291c6.343-3.454 11.445-5.902 11.97-11.654M672.288 641.41c4.561-2.808 13.772-10.42 18.022-10.016M677.465 636.187c-1.594-5.885 1.68-13.2 8.683-13.444M647.584 621.187c7.017 1.321 12.059-4.44 9.67-10.623-2.59-6.705-5.154-15.107-1.473-19.992M651.655 660.518c-.552-3.316 1.352-5.242 3.338-6.318M711.655 679.017c-.793 4.452-.265 9.824.422 13.93M725.17 716.74c1.321 1.404 3.298 2.998 7.71 3.401M663.325 703.662c9.683 16.588 29.726 7.622 24.486 24.457" style="fill:none;fill-rule:evenodd;stroke:#fff;stroke-width:1px;stroke-linecap:butt;stroke-linejoin:miter;stroke-opacity:1" transform="translate(-2575.938 -2348.413) scale(4.13954)"/><path d="M702.57 665.106c4.038 2.832 7.062 6.931 9.374 11.922l2.084-5.162-11.458-6.76z" style="fill:#e20909;fill-opacity:1;fill-rule:evenodd;stroke:#000;stroke-width:1px;stroke-linecap:butt;stroke-linejoin:miter;stroke-opacity:1" transform="translate(-2575.938 -2348.413) scale(4.13954)"/></g><g style="display:inline"><path style="fill:url(#b);fill-opacity:1" d="M1.5 1.5v458.868c0 166.31 134.315 301.132 300 301.132s300-134.821 300-301.132V1.5H1.5z"/></g><g style="display:inline"><path style="fill:none;fill-opacity:1;stroke:#000;stroke-width:3;stroke-miterlimit:4;stroke-dasharray:none;stroke-opacity:1" d="M1.5 1.5v458.868c0 166.31 134.315 301.132 300 301.132s300-134.821 300-301.132V1.5H1.5z"/></g></svg>
